X:252
T:Mullingar Lea
Z: id:dc-reel-232
M:C
L:1/8
K:G Mixolydian
BGdG G^FDE|F2AF cFAc|BGG^F GFDE|FAdc BGG2:|!
g^fgd Bcde|fefc ABcd|gfdc ABcA|dgg2 bga^f|!
g^fgd Bcde|fefc ABcd|edcA d2DE|FAdc BGG2|]!

